public/icons/img/text-banking.svg

<?xml version="1.0" encoding="UTF-8"?>
<svg width="64px" height="60px" viewBox="0 0 64 60" version="1.1" xmlns="http://www.w3.org/2000/svg" xmlns:xlink="http://www.w3.org/1999/xlink">
    <title>UI Elements/Icon / Help / Text Banking</title>
    <defs>
        <path d="M4,-2.39554408e-13 L45.5,-2.39554408e-13 C47.709139,-2.43884439e-13 49.5,1.790861 49.5,4 L49.5,29.1875 C49.5,30.7408009 48.2408009,32 46.6875,32 L44.875,32 C44.3227153,32 43.875,32.4477153 43.875,33 L43.875,39.9842855 C43.875,40.5365702 43.4272847,40.9842855 42.875,40.9842855 C42.5792877,40.9842855 42.298739,40.8534051 42.1087361,40.6268115 L35.1747484,32.357474 C34.9847455,32.1308803 34.7041968,32 34.4084845,32 L4,32 C1.790861,32 2.705415e-16,30.209139 0,28 L0,4 C-2.705415e-16,1.790861 1.790861,-2.39148596e-13 4,-2.39554408e-13 Z" id="path-1"></path>
    </defs>
    <g id="Iconography-&amp;-Interface-Details" stroke="none" stroke-width="1" fill="none" fill-rule="evenodd">
        <g id="Icons" transform="translate(-1123.000000, -370.000000)">
            <g id="UI-Elements/Icon-/-Help-/-Text-Banking" transform="translate(1119.000000, 368.000000)">
                <rect id="Rectangle" x="0" y="0" width="72" height="64"></rect>
                <g id="Text-Banking" transform="translate(4.500000, 2.285714)">
                    <g id="Path-9">
                        <mask id="mask-2" fill="white">
                            <use xlink:href="#path-1"></use>
                        </mask>
                        <use id="Mask" fill="#004B2E" transform="translate(24.750000, 20.385999) scale(-1, 1) translate(-24.750000, -20.385999) " xlink:href="#path-1"></use>
                    </g>
                    <path d="M19.625,16 L49.5,16 L49.5,16 L49.5,32 L14.625,32 L14.625,21 C14.625,18.2385763 16.8635763,16 19.625,16 Z" id="Path-9" fill="#000000" opacity="0.150614"></path>
                    <path d="M20.875,18.2857143 L59,18.2857143 C61.209139,18.2857143 63,20.0765753 63,22.2857143 L63,47.8398484 C63,49.7038094 61.488961,51.2148484 59.625,51.2148484 L57.25,51.2148484 C56.6977153,51.2148484 56.25,51.6625636 56.25,52.2148484 L56.25,58.1311528 C56.25,58.6834376 55.8022847,59.1311528 55.25,59.1311528 C54.9770898,59.1311528 54.716036,59.0196135 54.5273863,58.8224049 L47.5453482,51.5235963 C47.3566985,51.3263877 47.0956446,51.2148484 46.8227345,51.2148484 L20.875,51.2148484 C18.665861,51.2148484 16.875,49.4239874 16.875,47.2148484 L16.875,22.2857143 C16.875,20.0765753 18.665861,18.2857143 20.875,18.2857143 Z" id="Path-9" fill="#00B16E"></path>
                    <path d="M27,40 C25.1202308,40 23.625,38.4832831 23.625,36.5714286 C23.625,34.6618217 25.1180182,33.1428571 27,33.1428571 C28.8257834,33.1428571 30.375,34.6595741 30.375,36.5714286 C30.375,38.4832269 28.8819818,40 27,40 Z" id="Path" fill="#FFFFFF"></path>
                    <path d="M39.9375,40 C38.0577308,40 36.5625,38.4832831 36.5625,36.5714286 C36.5625,34.6618217 38.0555182,33.1428571 39.9375,33.1428571 C41.7632834,33.1428571 43.3125,34.6595741 43.3125,36.5714286 C43.3125,38.4832269 41.8194818,40 39.9375,40 Z" id="Path" fill="#FFFFFF"></path>
                    <path d="M52.875,40 C50.9952308,40 49.5,38.4832831 49.5,36.5714286 C49.5,34.6618217 51.0492166,33.1428571 52.875,33.1428571 C54.7007834,33.1428571 56.1938016,34.7166645 56.25,36.5714286 C56.25,38.4832269 54.7569818,40 52.875,40 Z" id="Path" fill="#FFFFFF"></path>
                </g>
            </g>
        </g>
    </g>
</svg>

<svg xmlns="http://www.w3.org/2000/svg" xmlns:xlink="http://www.w3.org/1999/xlink" width="64" height="60"
     xmlns:v="https://vecta.io/nano">
    <defs>
        <path d="M4 0h41.5a4 4 0 0 1 4 4v25.188C49.5 30.74 48.24 32 46.688 32h-1.812a1 1 0 0 0-1 1v6.984a1 1 0 0 1-1.766.643l-6.934-8.27a1 1 0 0 0-.766-.357H4a4 4 0 0 1-4-4V4a4 4 0 0 1 4-4z"
              id="A"/>
    </defs>
    <g transform="translate(.5 .286)" fill-rule="evenodd">
        <use fill="#004b2e" transform="matrix(-1 0 0 1 49.5 0)" xlink:href="#A"/>
        <path d="M19.625 16H49.5v16H14.625V21a5 5 0 0 1 5-5z" fill="#000" opacity=".15"/>
        <path d="M20.875 18.286H59a4 4 0 0 1 4 4V47.84c0 1.864-1.51 3.375-3.375 3.375H57.25a1 1 0 0 0-1 1v5.916a1 1 0 0 1-1.723.691l-6.982-7.3a1 1 0 0 0-.723-.309H20.875a4 4 0 0 1-4-4v-24.93a4 4 0 0 1 4-4z"
              fill="#00b16e"/>
        <path d="M27 40c-1.88 0-3.375-1.517-3.375-3.43s1.493-3.43 3.375-3.43c1.826 0 3.375 1.517 3.375 3.43S28.882 40 27 40zm12.938 0c-1.88 0-3.375-1.517-3.375-3.43s1.493-3.43 3.375-3.43c1.826 0 3.375 1.517 3.375 3.43S41.82 40 39.938 40zm12.937 0c-1.88 0-3.375-1.517-3.375-3.43s1.55-3.43 3.375-3.43 3.32 1.574 3.375 3.43c0 1.912-1.493 3.43-3.375 3.43z"
              fill="#fff"/>
    </g>
</svg>
